images/icons/icon-leaf.svg

<svg width="24" height="24" viewBox="0 0 24 24" fill="none" xmlns="http://www.w3.org/2000/svg">
<path d="M18.9932 13.8638C18.6882 7.05728 12.7571 0.465709 12.4927 0.179119C12.4927 0.179119 12.4927 0.179119 12.4588 0.179119L12.3775 0.085977L12.2893 0.028659H11.9098L11.781 0H11.7471L11.6251 0.085977L11.5505 0.15046C11.5505 0.15046 11.5505 0.15046 11.5166 0.15046C11.2522 0.465709 5.32111 7.06444 5.00253 13.8638C4.99916 13.9139 4.99916 13.9642 5.00253 14.0143C5.00253 14.2722 5.00253 14.5301 5.00253 14.7952C5.26011 22.1749 11.781 23.9804 11.8352 23.9947H12.0047C12.0609 24.0017 12.1178 24.0017 12.1741 23.9947C12.2351 23.9947 18.7492 22.1391 19 14.7952C19 14.5301 19 14.2722 19 14.0143C19 13.9641 18.9932 13.9139 18.9932 13.8638ZM6.79204 11.349C8.14596 12.579 9.67677 13.5731 11.3268 14.2937V17.5536C9.66609 16.6867 7.11062 15.1463 6.35822 13.7921C6.41926 12.9653 6.55776 12.1469 6.7717 11.349H6.79204ZM8.14772 7.69494C9.03431 8.6738 10.1221 9.42395 11.3268 9.88735V12.7103C9.81228 12.0346 8.43233 11.0622 7.25975 9.84437C7.51761 9.11096 7.81407 8.39337 8.14772 7.69494ZM16.7631 9.84437C15.591 11.0629 14.211 12.0354 12.6961 12.7103V9.88735C13.8911 9.42006 14.9692 8.67015 15.848 7.69494C16.19 8.3834 16.4955 9.09142 16.7631 9.81571V9.84437ZM12.6961 8.36843V2.63663C13.602 3.81097 14.4287 5.05113 15.1702 6.34797C14.5164 7.22655 13.6597 7.91248 12.6825 8.33977L12.6961 8.36843ZM12.6961 17.568V14.2937C14.3524 13.5795 15.8901 12.5902 17.2512 11.3633C17.4588 12.1643 17.5905 12.9851 17.6443 13.8136C16.8987 15.1463 14.3432 16.6795 12.6825 17.5393L12.6961 17.568ZM11.3404 8.36843C10.3587 7.93568 9.50109 7.23916 8.85268 6.34797C9.59279 5.03883 10.4196 3.78665 11.3268 2.6008L11.3404 8.36843ZM6.50056 16.0562C7.98306 17.2875 9.60416 18.3199 11.3268 19.1299V22.2824C10.0945 21.7531 9.00713 20.906 8.16409 19.8185C7.32105 18.7309 6.74914 17.4374 6.50056 16.0562ZM12.6825 22.2895V19.1227C14.4066 18.3186 16.0281 17.2883 17.5087 16.0562C17.2707 17.4427 16.7028 18.7423 15.8585 19.8328C15.0142 20.9233 13.9212 21.7687 12.6825 22.2895Z" fill="#2D3440"/>
</svg>

<svg width="24" height="24" fill="none" xmlns="http://www.w3.org/2000/svg"><path d="M18.993 13.864C18.688 7.057 12.757.466 12.493.179h-.034l-.082-.093-.088-.057h-.38L11.782 0h-.034l-.122.086-.075.064h-.033c-.265.316-6.196 6.914-6.514 13.714-.004.05-.004.1 0 .15v.781c.257 7.38 6.778 9.185 6.832 9.2h.17a.686.686 0 0 0 .17 0c.06 0 6.574-1.856 6.825-9.2v-.78c0-.05-.007-.101-.007-.151ZM6.792 11.349a16.67 16.67 0 0 0 4.535 2.945v3.26c-1.66-.867-4.216-2.408-4.969-3.762.061-.827.2-1.645.414-2.443h.02Zm1.356-3.654a8.33 8.33 0 0 0 3.179 2.192v2.823A13.01 13.01 0 0 1 7.26 9.844c.258-.733.554-1.45.888-2.15Zm8.615 2.15a12.976 12.976 0 0 1-4.067 2.865V9.887a8.335 8.335 0 0 0 3.152-2.192c.342.688.647 1.396.915 2.12v.03Zm-4.067-1.477V2.637a32.43 32.43 0 0 1 2.474 3.711 6.21 6.21 0 0 1-2.488 1.992l.014.028Zm0 9.2v-3.274a16.66 16.66 0 0 0 4.555-2.93c.208.8.34 1.621.393 2.45-.745 1.332-3.3 2.866-4.961 3.725l.013.029Zm-1.356-9.2a6.155 6.155 0 0 1-2.487-2.02 32.449 32.449 0 0 1 2.474-3.747l.013 5.767ZM6.5 16.056a22.623 22.623 0 0 0 4.827 3.074v3.152a8.011 8.011 0 0 1-3.163-2.463 8.64 8.64 0 0 1-1.663-3.763Zm6.182 6.233v-3.166a22.251 22.251 0 0 0 4.827-3.067 8.526 8.526 0 0 1-1.65 3.777 7.896 7.896 0 0 1-3.177 2.457Z" fill="#2D3440"/></svg>
